X: 1
T: Carolan's Draught 186.
S: Donal O'Sullivan, Vol. 1 &quot;CAROLAN&quot;
S: The Life Times and Music Of An Irish Harper
M: 4/4
L: 1/8
R: reel
K: Gmaj
D2 |: GABc defd|g2fe d2 d2|e2E2 d2D2|c2Bc AcBA |
GABc defd|gfed ^cbag|gfed A2^c2| d6 :|| 
fg|afga bagf| egfe edcB|edef gfga|bagf efga|
bBbB aBaB|gBgB fBfB|edef gfed|e6f2|
gfed cBAG|e2d2d2D2|c2B2A2G2|FGAF D2r2|
EFGE FGAF|GABG ABcA|d2g2 bagf|g6:||
